src/assets/images/homepage/home/partner_logo_12.svg

<svg fill="none" height="89" viewBox="0 0 89 89" width="89" xmlns="http://www.w3.org/2000/svg" xmlns:xlink="http://www.w3.org/1999/xlink"><clipPath id="a"><path d="m24.1035 15h39v59h-39z"/></clipPath><circle cx="44.2225" cy="44.2225" fill="#fff" r="44.2225"/><g clip-path="url(#a)" fill="#121312"><path d="m32.6367 66.6312c-.6209-.2499-1.3785-.4571-2.273-.6243h-.0195c-.8696-.1538-1.5224-.2943-1.9568-.4223-.4352-.1281-.7772-.3006-1.0259-.5184-.2495-.2179-.3739-.5184-.3739-.9026 0-.5628.2105-.9923.6333-1.2866.4219-.2944.9779-.442 1.669-.442.755 0 1.3652.1921 1.8324.5762.4192.345.6759.7834.7701 1.3143.0186.1058.1083.184.2158.1849l2.1228.016c.1306.0009.2345-.1111.2212-.241-.071-.7104-.3046-1.356-.7017-1.9375-.4414-.6465-1.049-1.1489-1.8226-1.5072-.7737-.3583-1.653-.538-2.6371-.538-.9336 0-1.7747.1725-2.5226.5184s-1.3297.8261-1.7453 1.4405c-.4157.6145-.6236 1.3063-.6236 2.0736 0 .8448.1848 1.5232.5561 2.0354.3703.5122.8562.8999 1.4575 1.1622.6014.2623 1.3235.4704 2.1673.6242l.0959.0196c.8945.1663 1.5633.3139 2.0047.4419.4415.128.7897.3077 1.0455.538s.3837.5442.3837.9407c0 .5638-.2301 1.0048-.6902 1.3249-.4601.3202-1.0552.4802-1.7835.4802-.8696 0-1.5731-.2205-2.1095-.6624-.4886-.402-.7764-.9177-.8625-1.5472-.0151-.1085-.1048-.1912-.215-.193l-2.1201-.032c-.1288-.0018-.2336.1067-.223.2356.0604.7745.302 1.4725.7257 2.0941.4663.6847 1.1094 1.2226 1.9274 1.613.8181.3903 1.7587.586 2.8201.586.9851 0 1.8671-.1788 2.6469-.538.7799-.3583 1.391-.8545 1.8315-1.4885.4415-.634.6618-1.3471.6618-2.1412 0-.8447-.1919-1.5268-.5756-2.0452s-.8856-.9025-1.5055-1.1523z"/><path d="m45.6713 71.806h-.3313c-.1919 0-.342-.0506-.4503-.1538-.1093-.1022-.1635-.2685-.1635-.4988v-3.668c0-1.1648-.3712-2.0513-1.112-2.6596-.7417-.6082-1.6148-.9176-2.9836-.9176-1.2923 0-2.3005.281-3.0936.8314-.723.5015-1.1583 1.1897-1.3075 2.0629-.0231.1361.0791.2606.2167.2606h1.9497c.0977 0 .1847-.0641.2114-.1583.0888-.3237.2851-.5869.5889-.7923.3517-.2365.7692-.3548 1.319-.3548 1.0374 0 1.7746.6403 1.7746 1.5935v.2978c0 .1219-.0986.2206-.2202.2206h-1.7658c-1.4318 0-2.519.2819-3.2607.8447-.7416.5638-1.1129 1.3631-1.1129 2.4 0 .8963.3384 1.6005 1.017 2.1127.5081.3841 1.1165.6055 1.7427.7024.4778.0739.969.1014 1.4487.0241.5018-.0801.9095-.2873 1.3181-.5834.3668-.2649.6724-.6046.9513-1.019.1359-.2338.4929-.1405.4929.1307v.3255c0 .5913.4788 1.0715 1.0695 1.0715h1.7009c.1217 0 .2203-.0987.2203-.2206v-1.6325c0-.1218-.0986-.2205-.2203-.2205zm-3.3815-1.9775c0 .4739-.0994.8865-.2975 1.2386-.4157.7381-1.1583 1.1231-1.995 1.1231-.4858 0-.8757-.1147-1.1697-.3459-.294-.2303-.4415-.538-.4415-.9221 0-.4348.1634-.7709.4894-1.0084.326-.2365.7896-.3556 1.391-.3556h1.8039c.1217 0 .2203.0987.2203.2205v.0498z"/><path d="m52.7778 60.4434h-2.5368c-1.3385 0-2.423 1.0857-2.423 2.4257v1.0661c0 .1219-.0986.2206-.2203.2206h-1.4487c-.1217 0-.2203.0987-.2203.2205v1.6521c0 .1218.0986.2205.2203.2205h1.4487c.1217 0 .2203.0987.2203.2205v7.191c0 .1218.0985.2205.2202.2205h1.9763c.1217 0 .2203-.0987.2203-.2205v-7.191c0-.1218.0986-.2205.2203-.2205h2.3031c.1217 0 .2203-.0987.2203-.2205v-1.6521c0-.1218-.0986-.2205-.2203-.2205h-2.3031c-.1217 0-.2203-.0987-.2203-.2206v-.9576c0-.2437.1972-.4411.4406-.4411h2.1024c.1217 0 .2203-.0987.2203-.2205v-1.6521c0-.1218-.0986-.2205-.2203-.2205z"/><path d="m62.4612 66.141c-.4281-.7167-1.0135-1.2671-1.7551-1.6513-.7417-.3841-1.5988-.5815-2.5705-.5815s-1.8102.2134-2.551.6296c-.7417.4161-1.3172 1.0047-1.7267 1.7668-.4095.762-.6138 1.6548-.6138 2.6791 0 1.0244.2114 1.8789.6333 2.6401.4219.762 1.0259 1.3471 1.8129 1.757.7861.4099 1.7098.6144 2.7721.6144.8181 0 1.5509-.1502 2.1966-.4517.6457-.3005 1.1662-.7131 1.5633-1.2386.3393-.4499.5711-.9417.6946-1.4752.0319-.1387-.072-.2721-.215-.2721h-1.986c-.0951 0-.1786.0614-.2088.1521-.1403.4143-.3872.7407-.7408.9808-.397.2685-.8891.4028-1.4771.4028-.4858 0-.9113-.1023-1.2754-.3068-.3642-.2045-.652-.4926-.8634-.8643-.0835-.1467-.1519-.3015-.2061-.4615-.0577-.1716-.1003-.3486-.1288-.5273-.0097-.0622-.0195-.1254-.0266-.1885-.0151-.1298.0879-.2437.2194-.2437h6.8473c.111 0 .206-.0826.2185-.1929.0098-.0809.016-.1636.0195-.249.0062-.1538.0098-.2943.0098-.4223 0-.947-.2141-1.7793-.6422-2.496zm-2.0571 1.6894h-4.2883c-.1404 0-.247-.1307-.2159-.2685.0684-.3014.1874-.5735.3562-.8172.2176-.3138.4992-.5539.8438-.7202.3455-.1663.7221-.2499 1.1316-.2499.6644 0 1.2151.1796 1.6494.538.3731.3077.6191.7238.7381 1.2475.0311.1379-.0737.2695-.2149.2695z"/><path d="m60.8172 34.5107h-4.2288c-1.2631 0-2.2863 1.0252-2.2863 2.2887v6.1444c0 1.2644-1.0241 2.2888-2.2863 2.2888h-16.8238c-1.263 0-2.2862 1.0252-2.2862 2.2888v4.2335c0 1.2644 1.0241 2.2887 2.2862 2.2887h17.7982c1.2631 0 2.2721-1.0252 2.2721-2.2887v-3.3968c0-1.2644 1.0241-2.1616 2.2863-2.1616h3.2686c1.2631 0 2.2863-1.0253 2.2863-2.2888v-7.1358c0-1.2645-1.0241-2.2621-2.2863-2.2621z"/><path d="m32.9049 26.0998c0-1.2644 1.0241-2.2887 2.2863-2.2887h16.814c1.263 0 2.2863-1.0253 2.2863-2.2888v-4.2335c0-1.2644-1.0241-2.2888-2.2863-2.2888h-17.7884c-1.2631 0-2.2863 1.0252-2.2863 2.2888v3.2616c0 1.2644-1.0241 2.2888-2.2863 2.2888h-3.2544c-1.2631 0-2.2863 1.0252-2.2863 2.2888v7.1429c0 1.2644 1.0277 2.2372 2.2907 2.2372h4.2289c1.263 0 2.2862-1.0253 2.2862-2.2888l-.0035-6.1195z"/><path d="m45.6749 30.0605h-4.0619c-1.3244 0-2.3982 1.0749-2.3982 2.4009v4.0663c0 1.3259 1.0738 2.4008 2.3982 2.4008h4.0619c1.3245 0 2.3982-1.0749 2.3982-2.4008v-4.0663c0-1.326-1.0737-2.4009-2.3982-2.4009z"/></g></svg>

<svg width="89" height="89" viewBox="0 0 89 89" fill="none" xmlns="http://www.w3.org/2000/svg">
<circle cx="44.2225" cy="44.2225" r="44.2225" fill="white"/>
<g clip-path="url(#clip0_5626_12310)">
<path d="M32.6367 66.6312C32.0158 66.3813 31.2582 66.1741 30.3637 66.0069H30.3442C29.4746 65.8531 28.8218 65.7126 28.3874 65.5846C27.9522 65.4565 27.6102 65.284 27.3615 65.0662C27.112 64.8483 26.9876 64.5478 26.9876 64.1636C26.9876 63.6008 27.1981 63.1713 27.6209 62.877C28.0428 62.5826 28.5988 62.435 29.2899 62.435C30.0449 62.435 30.6551 62.6271 31.1223 63.0112C31.5415 63.3562 31.7982 63.7946 31.8924 64.3255C31.911 64.4313 32.0007 64.5095 32.1082 64.5104L34.231 64.5264C34.3616 64.5273 34.4655 64.4153 34.4522 64.2854C34.3812 63.575 34.1476 62.9294 33.7505 62.3479C33.3091 61.7014 32.7015 61.199 31.9279 60.8407C31.1542 60.4824 30.2749 60.3027 29.2908 60.3027C28.3572 60.3027 27.5161 60.4752 26.7682 60.8211C26.0203 61.167 25.4385 61.6472 25.0229 62.2616C24.6072 62.8761 24.3993 63.5679 24.3993 64.3352C24.3993 65.18 24.5841 65.8584 24.9554 66.3706C25.3257 66.8828 25.8116 67.2705 26.4129 67.5328C27.0143 67.7951 27.7364 68.0032 28.5802 68.157L28.6761 68.1766C29.5706 68.3429 30.2394 68.4905 30.6808 68.6185C31.1223 68.7465 31.4705 68.9262 31.7263 69.1565C31.9821 69.3868 32.11 69.7007 32.11 70.0972C32.11 70.661 31.8799 71.102 31.4198 71.4221C30.9597 71.7423 30.3646 71.9023 29.6363 71.9023C28.7667 71.9023 28.0632 71.6818 27.5268 71.2399C27.0382 70.8379 26.7504 70.3222 26.6643 69.6927C26.6492 69.5842 26.5595 69.5015 26.4493 69.4997L24.3292 69.4677C24.2004 69.4659 24.0956 69.5744 24.1062 69.7033C24.1666 70.4778 24.4082 71.1758 24.8319 71.7974C25.2982 72.4821 25.9413 73.02 26.7593 73.4104C27.5774 73.8007 28.518 73.9964 29.5794 73.9964C30.5645 73.9964 31.4465 73.8176 32.2263 73.4584C33.0062 73.1001 33.6173 72.6039 34.0578 71.9699C34.4993 71.3359 34.7196 70.6228 34.7196 69.8287C34.7196 68.984 34.5277 68.3019 34.144 67.7835C33.7603 67.2651 33.2584 66.881 32.6385 66.6312H32.6367Z" fill="#121312"/>
<path d="M45.6713 71.806H45.34C45.1481 71.806 44.998 71.7554 44.8897 71.6522C44.7804 71.55 44.7262 71.3837 44.7262 71.1534V67.4854C44.7262 66.3206 44.355 65.4341 43.6142 64.8258C42.8725 64.2176 41.9994 63.9082 40.6306 63.9082C39.3383 63.9082 38.3301 64.1892 37.537 64.7396C36.814 65.2411 36.3787 65.9293 36.2295 66.8025C36.2064 66.9386 36.3086 67.0631 36.4462 67.0631H38.3959C38.4936 67.0631 38.5806 66.999 38.6073 66.9048C38.6961 66.5811 38.8924 66.3179 39.1962 66.1125C39.5479 65.876 39.9654 65.7577 40.5152 65.7577C41.5526 65.7577 42.2898 66.398 42.2898 67.3512V67.649C42.2898 67.7709 42.1912 67.8696 42.0696 67.8696H40.3038C38.872 67.8696 37.7848 68.1515 37.0431 68.7143C36.3015 69.2781 35.9302 70.0774 35.9302 71.1143C35.9302 72.0106 36.2686 72.7148 36.9472 73.227C37.4553 73.6111 38.0637 73.8325 38.6899 73.9294C39.1677 74.0033 39.6589 74.0308 40.1386 73.9535C40.6404 73.8734 41.0481 73.6662 41.4567 73.3701C41.8235 73.1052 42.1291 72.7655 42.408 72.3511C42.5439 72.1173 42.9009 72.2106 42.9009 72.4818V72.8073C42.9009 73.3986 43.3797 73.8788 43.9704 73.8788H45.6713C45.793 73.8788 45.8916 73.7801 45.8916 73.6582V72.0257C45.8916 71.9039 45.793 71.8052 45.6713 71.8052V71.806ZM42.2898 69.8285C42.2898 70.3024 42.1904 70.715 41.9923 71.0671C41.5766 71.8052 40.834 72.1902 39.9973 72.1902C39.5115 72.1902 39.1216 72.0755 38.8276 71.8443C38.5336 71.614 38.3861 71.3063 38.3861 70.9222C38.3861 70.4874 38.5495 70.1513 38.8755 69.9138C39.2015 69.6773 39.6651 69.5582 40.2665 69.5582H42.0704C42.1921 69.5582 42.2907 69.6569 42.2907 69.7787V69.8285H42.2898Z" fill="#121312"/>
<path d="M52.7778 60.4434H50.241C48.9025 60.4434 47.818 61.5291 47.818 62.8691V63.9352C47.818 64.0571 47.7194 64.1558 47.5977 64.1558H46.149C46.0273 64.1558 45.9287 64.2545 45.9287 64.3763V66.0284C45.9287 66.1502 46.0273 66.2489 46.149 66.2489H47.5977C47.7194 66.2489 47.818 66.3476 47.818 66.4694V73.6604C47.818 73.7822 47.9165 73.8809 48.0382 73.8809H50.0145C50.1362 73.8809 50.2348 73.7822 50.2348 73.6604V66.4694C50.2348 66.3476 50.3334 66.2489 50.4551 66.2489H52.7582C52.8799 66.2489 52.9785 66.1502 52.9785 66.0284V64.3763C52.9785 64.2545 52.8799 64.1558 52.7582 64.1558H50.4551C50.3334 64.1558 50.2348 64.0571 50.2348 63.9352V62.9776C50.2348 62.7339 50.432 62.5365 50.6754 62.5365H52.7778C52.8995 62.5365 52.9981 62.4378 52.9981 62.316V60.6639C52.9981 60.5421 52.8995 60.4434 52.7778 60.4434Z" fill="#121312"/>
<path d="M62.4612 66.141C62.0331 65.4243 61.4477 64.8739 60.7061 64.4897C59.9644 64.1056 59.1073 63.9082 58.1356 63.9082C57.1639 63.9082 56.3254 64.1216 55.5846 64.5378C54.8429 64.9539 54.2674 65.5425 53.8579 66.3046C53.4484 67.0666 53.2441 67.9594 53.2441 68.9837C53.2441 70.0081 53.4555 70.8626 53.8774 71.6238C54.2993 72.3858 54.9033 72.9709 55.6903 73.3808C56.4764 73.7907 57.4001 73.9952 58.4624 73.9952C59.2805 73.9952 60.0133 73.845 60.659 73.5435C61.3047 73.243 61.8252 72.8304 62.2223 72.3049C62.5616 71.855 62.7934 71.3632 62.9169 70.8297C62.9488 70.691 62.8449 70.5576 62.7019 70.5576H60.7159C60.6208 70.5576 60.5373 70.619 60.5071 70.7097C60.3668 71.124 60.1199 71.4504 59.7663 71.6905C59.3693 71.959 58.8772 72.0933 58.2892 72.0933C57.8034 72.0933 57.3779 71.991 57.0138 71.7865C56.6496 71.582 56.3618 71.2939 56.1504 70.9222C56.0669 70.7755 55.9985 70.6207 55.9443 70.4607C55.8866 70.2891 55.844 70.1121 55.8155 69.9334C55.8058 69.8712 55.796 69.808 55.7889 69.7449C55.7738 69.6151 55.8768 69.5012 56.0083 69.5012H62.8556C62.9666 69.5012 63.0616 69.4186 63.0741 69.3083C63.0839 69.2274 63.0901 69.1447 63.0936 69.0593C63.0998 68.9055 63.1034 68.765 63.1034 68.637C63.1034 67.69 62.8893 66.8577 62.4612 66.141ZM60.4041 67.8304H56.1158C55.9754 67.8304 55.8688 67.6997 55.8999 67.5619C55.9683 67.2605 56.0873 66.9884 56.2561 66.7447C56.4737 66.4309 56.7553 66.1908 57.0999 66.0245C57.4454 65.8582 57.822 65.7746 58.2315 65.7746C58.8959 65.7746 59.4466 65.9542 59.8809 66.3126C60.254 66.6203 60.5 67.0364 60.619 67.5601C60.6501 67.698 60.5453 67.8296 60.4041 67.8296V67.8304Z" fill="#121312"/>
<path d="M60.8172 34.5107H56.5884C55.3253 34.5107 54.3021 35.5359 54.3021 36.7994V42.9438C54.3021 44.2082 53.278 45.2326 52.0158 45.2326H35.192C33.929 45.2326 32.9058 46.2578 32.9058 47.5214V51.7549C32.9058 53.0193 33.9299 54.0436 35.192 54.0436H52.9902C54.2533 54.0436 55.2623 53.0184 55.2623 51.7549V48.3581C55.2623 47.0937 56.2864 46.1965 57.5486 46.1965H60.8172C62.0803 46.1965 63.1035 45.1712 63.1035 43.9077V36.7719C63.1035 35.5074 62.0794 34.5098 60.8172 34.5098V34.5107Z" fill="#121312"/>
<path d="M32.9049 26.0998C32.9049 24.8354 33.929 23.8111 35.1912 23.8111H52.0052C53.2682 23.8111 54.2915 22.7858 54.2915 21.5223V17.2888C54.2915 16.0244 53.2674 15 52.0052 15H34.2168C32.9537 15 31.9305 16.0252 31.9305 17.2888V20.5504C31.9305 21.8148 30.9064 22.8392 29.6442 22.8392H26.3898C25.1267 22.8392 24.1035 23.8644 24.1035 25.128V32.2709C24.1035 33.5353 25.1312 34.5081 26.3942 34.5081H30.6231C31.8861 34.5081 32.9093 33.4828 32.9093 32.2193L32.9058 26.0998H32.9049Z" fill="#121312"/>
<path d="M45.6749 30.0605H41.613C40.2886 30.0605 39.2148 31.1354 39.2148 32.4614V36.5277C39.2148 37.8536 40.2886 38.9285 41.613 38.9285H45.6749C46.9994 38.9285 48.0731 37.8536 48.0731 36.5277V32.4614C48.0731 31.1354 46.9994 30.0605 45.6749 30.0605Z" fill="#121312"/>
</g>
<defs>
<clipPath id="clip0_5626_12310">
<rect width="39" height="59" fill="white" transform="translate(24.1035 15)"/>
</clipPath>
</defs>
</svg>
